packages/dnb-ui-lib/assets/icons/bell.svg

<svg width="16" height="16" viewBox="0 0 16 16" fill="none" xmlns="http://www.w3.org/2000/svg">
<path fill-rule="evenodd" clip-rule="evenodd" d="M8.00001 0.000305176C8.41422 0.000305176 8.75001 0.336092 8.75001 0.750305V1.29878C11.5713 1.66628 13.75 4.07886 13.75 7.00031C13.75 9.3016 13.9957 10.5942 14.2149 11.285C14.3238 11.6283 14.4238 11.8153 14.4781 11.9014C14.4961 11.9298 14.5089 11.9472 14.5155 11.9555C14.7292 12.1576 14.8063 12.4682 14.7075 12.7491C14.6019 13.0494 14.3183 13.2503 14 13.2503H2.00001C1.71313 13.2503 1.45138 13.0867 1.32575 12.8288C1.20252 12.5758 1.23143 12.2756 1.39948 12.051C1.40113 12.0486 1.40448 12.0436 1.40936 12.0359C1.42348 12.0136 1.45059 11.9684 1.48672 11.8968C1.55892 11.7537 1.66768 11.5044 1.78067 11.1215C2.00682 10.3552 2.25001 9.05333 2.25001 7.00031C2.25001 4.07886 4.42874 1.66628 7.25001 1.29878V0.750305C7.25001 0.336092 7.58579 0.000305176 8.00001 0.000305176ZM8.00001 2.75031C5.6528 2.75031 3.75001 4.6531 3.75001 7.00031C3.75001 9.16995 3.49319 10.6181 3.21934 11.5461C3.19836 11.6172 3.17727 11.6852 3.1562 11.7503H12.7888L12.7851 11.7387C12.5043 10.8538 12.25 9.39635 12.25 7.00031C12.25 4.6531 10.3472 2.75031 8.00001 2.75031ZM6.4555 13.5307C6.85294 13.414 7.26972 13.6416 7.38639 14.0391C7.46656 14.3122 7.71713 14.4997 8.00175 14.4997C8.28638 14.4997 8.53695 14.3122 8.61712 14.0391C8.73379 13.6416 9.15056 13.414 9.54801 13.5307C9.94545 13.6473 10.1731 14.0641 10.0564 14.4616C9.78871 15.3734 8.95208 15.9997 8.00175 15.9997C7.05143 15.9997 6.2148 15.3734 5.94712 14.4616C5.83045 14.0641 6.05806 13.6473 6.4555 13.5307Z" fill="black"/>
</svg>

<svg width="16" height="16" viewBox="0 0 16 16" fill="none" xmlns="http://www.w3.org/2000/svg"><path fill-rule="evenodd" clip-rule="evenodd" d="M8 0a.75.75 0 01.75.75V1.3c2.821.367 5 2.78 5 5.701 0 2.302.246 3.594.465 4.285.109.343.209.53.263.616.018.029.03.046.037.055A.75.75 0 0114 13.25H2a.75.75 0 01-.59-1.214c.013-.022.04-.068.077-.14a4.67 4.67 0 00.294-.775c.226-.766.469-2.068.469-4.12a5.751 5.751 0 015-5.702V.75A.75.75 0 018 0zm0 2.75A4.25 4.25 0 003.75 7c0 2.17-.257 3.618-.53 4.546l-.064.204h9.633l-.004-.011c-.28-.885-.535-2.343-.535-4.739A4.25 4.25 0 008 2.75zM6.455 13.53a.75.75 0 01.931.51.641.641 0 001.231 0 .75.75 0 111.44.422 2.141 2.141 0 01-4.11 0 .75.75 0 01.508-.931z" fill="#000"/></svg>
